!!!!SEGMENT: pl-cz--d-ii-40--004_elsner-jozef--requiem-in-c-op-42-domine.krn
!!!cenid: 18xx:33
!!!COM: Elsner, Józef
!!!COM-rismid: pe30000957
!!!CDT: 1769/06/01-1854/04/18
!!!CNT: Polish
!!!OPR: Requiem in C op. 42
!!!OTL: Domine
!!!OMV: 004
!!!PDT:
!!!AGN: Sacred; Requiem
!!!SMS-siglum: PL-CZ
!!!SMS-shelfmark: dii-40
!!!SMS-shelfwork: 001-004 M
!!!NIFC-rismid:
!!!URL-scan: http://repozytorium.nifc.pl/skany/pl-cz-nut--dii-40
!!!ONB-nifc:
!!!key:
**kern	**dynam	**kern	**dynam	**kern	**dynam	**kern	**dynam	**kern	**dynam	**kern	**dynam	**kern	**dynam	**kern	**dynam	**kern	**dynam	**kern	**text	**dynam	**kern	**text	**dynam	**kern	**text	**dynam
*part12	*part12	*part11	*part11	*part10	*part10	*part9	*part9	*part8	*part8	*part7	*part7	*part6	*part6	*part5	*part5	*part4	*part4	*part3	*part3	*part3	*part2	*part2	*part2	*part1	*part1	*part1
*staff12	*	*staff11	*	*staff10	*	*staff9	*	*staff8	*	*staff7	*	*staff6	*	*staff5	*	*staff4	*	*staff3	*staff3	*	*staff2	*staff2	*	*staff1	*staff1	*
*Iempty	*	*Itimpa	*	*Iempty	*	*Icor	*	*Iempty	*	*Itromt	*	*Iempty	*	*Icello&Ifagot	*	*Icello&Ifagot	*	*Ibass	*	*	*Iempty	*	*	*Itenor	*	*
*I"Bassi	*	*I"Tympani	*	*I"Clarini C. Es. C. G.	*	*I"Corni in Es.	*	*I"3.	*	*I"Tromboni 2.	*	*I"1.	*	*I"Violoncello. II. con Fagotto.	*	*I"Violoncello. I. con Fagotto.	*	*I"Basso	*	*	*I"Domine	*	*	*I"Tenore I	*	*
*I'Cb	*	*I'Timp	*	*I'Clni	*	*I'Cor	*	*I'Tbn III	*	*I'Tbn II	*	*I'Tbn I	*	*I'Vc II con Fg	*	*I'Vc I con. Fg	*	*I'B	*	*	*I'T II	*	*	*I'T I	*	*
*clefF4	*	*clefF4	*	*clefG2	*	*clefG2	*	*clefF4	*	*clefC4	*	*clefC4	*	*clefF4	*	*clefC4	*	*clefF4	*	*	*clefC4	*	*	*clefC4	*	*
*	*	*	*	*	*	*ITrd5c9	*	*	*	*	*	*	*	*	*	*	*	*	*	*	*	*	*	*	*	*
*k[b-e-a-]	*	*k[]	*	*k[]	*	*k[b-e-a-]	*	*k[b-e-a-]	*	*k[b-e-a-]	*	*k[b-e-a-]	*	*k[b-e-a-]	*	*k[b-e-a-]	*	*k[b-e-a-]	*	*	*k[b-e-a-]	*	*	*k[b-e-a-]	*	*
*c:	*	*	*	*	*	*	*	*c:	*	*c:	*	*c:	*	*c:	*	*c:	*	*c:	*	*	*c:	*	*	*c:	*	*
*M3/4	*	*M3/4	*	*M3/4	*	*M3/4	*	*M3/4	*	*M3/4	*	*M3/4	*	*M3/4	*	*M3/4	*	*M3/4	*	*	*M3/4	*	*	*M3/4	*	*
=1	=1	=1	=1	=1	=1	=1	=1	=1	=1	=1	=1	=1	=1	=1	=1	=1	=1	=1	=1	=1	=1	=1	=1	=1	=1	=1
!	!	!	!	!LO:SIC:v= Es. C. G. przy nazwie instrumentu odnosi sie raczej do kotłów	!	!	!	!	!	!	!	!	!	!	!	!	!LO:DY:b	!	!	!	!	!	!	!LO:TX:a:t=Andante con moto.	!	!LO:DY:rj
2.E-\	p<	2.r	.	2.r	.	[2.e-/	.	2.r	.	2.r	.	2.r	.	2.G\	.	[2.B-\	p	[2.E-\	Do-	.	[>2.G/	Do-	.	[2.B-\	Do-	p
.	.	.	.	.	.	.	.	.	.	.	.	.	.	.	.	.	<	.	.	.	.	.	.	.	.	.
.	[	.	.	.	.	.	.	.	.	.	.	.	.	.	.	.	[	.	.	.	.	.	.	.	.	.
=2	=2	=2	=2	=2	=2	=2	=2	=2	=2	=2	=2	=2	=2	=2	=2	=2	=2	=2	=2	=2	=2	=2	=2	=2	=2	=2
4.E-\	>	2.r	.	2.r	.	2.e-/]	.	2.r	.	2.r	.	2.r	.	4.G\	.	4.B-\]	>	4.E-\]	.	.	4.G/]	.	.	4.B-\]	.	.
8E-\	]	.	.	.	.	.	.	.	.	.	.	.	.	8A-\	.	8c\	]	8E-\	-mi-	.	8A-/	-mi-	.	8c\	-mi-	.
4E-\	.	.	.	.	.	.	.	.	.	.	.	.	.	4G\	.	4B-\	.	4E-\	-ne	.	4G/	-ne	.	4B-\	-ne	.
=3	=3	=3	=3	=3	=3	=3	=3	=3	=3	=3	=3	=3	=3	=3	=3	=3	=3	=3	=3	=3	=3	=3	=3	=3	=3	=3
2E-\	.	2.r	.	2.r	.	2.e-/	.	2.r	.	2.r	.	2.r	.	4G\	.	(>4e-\	.	2E-\	Je-	.	(<4G/	Je-	.	(>4e-\	Je-	.
.	.	.	.	.	.	.	.	.	.	.	.	.	.	4E-\	.	4G/)	.	.	.	.	4E-/)	.	.	4G/)	.	.
4E-\	.	.	.	.	.	.	.	.	.	.	.	.	.	4A-\	.	4c\	.	4E-\	-su	.	4A-/	-su	.	4c\	-su	.
=4	=4	=4	=4	=4	=4	=4	=4	=4	=4	=4	=4	=4	=4	=4	=4	=4	=4	=4	=4	=4	=4	=4	=4	=4	=4	=4
4D\	.	2.r	.	2.r	.	4B-/ 4f/	.	2.r	.	2.r	.	2.r	.	4F\	.	8.B-\L	.	4D\	Chri-	.	4F/	Chri-	.	8.B-\L	Chri-	.
.	.	.	.	.	.	.	.	.	.	.	.	.	.	.	.	16A-\Jk	.	.	.	.	.	.	.	16A-\Jk	.	.
4E-\	.	.	.	.	.	4G/ 4e-/	.	.	.	.	.	.	.	4E-\	.	4G/	.	4E-\	-ste	.	4E-/	-ste	.	4G/	-ste,	.
4r	.	.	.	.	.	4r	.	.	.	.	.	.	.	4r	.	4r	.	4r	.	.	4r	.	.	4r	.	.
=5	=5	=5	=5	=5	=5	=5	=5	=5	=5	=5	=5	=5	=5	=5	=5	=5	=5	=5	=5	=5	=5	=5	=5	=5	=5	=5
*	*	*	*	*	*	*^	*	*	*	*	*	*	*	*	*	*	*	*	*	*	*	*	*	*	*	*
!	!	!	!LO:DY:b	!	!	!	!	!	!	!	!	!	!	!	!	!	!	!LO:DY:b	!	!	!	!	!	!	!	!	!
*	*	*tremolo	*	*	*	*	*	*	*	*	*	*	*	*	*	*	*	*	*	*	*	*	*	*	*	*	*
2C/	.	16C/LL	ff	2c/ 2cc/	.	2g/	2e-\	f	2C/	.	2G/	.	2e-\	.	2G\	.	2e-\	f	2C/	Rex	.	2G/	Rex	.	2e-\	Rex	f
.	.	16C/	.	.	.	.	.	.	.	.	.	.	.	.	.	.	.	.	.	.	.	.	.	.	.	.	.
.	.	16C/	.	.	.	.	.	.	.	.	.	.	.	.	.	.	.	.	.	.	.	.	.	.	.	.	.
.	.	16C/JJ	.	.	.	.	.	.	.	.	.	.	.	.	.	.	.	.	.	.	.	.	.	.	.	.	.
.	.	8C/	.	.	.	.	.	.	.	.	.	.	.	.	.	.	.	.	.	.	.	.	.	.	.	.	.
.	.	8r	.	.	.	.	.	.	.	.	.	.	.	.	.	.	.	.	.	.	.	.	.	.	.	.	.
4F\	.	4r	.	4r	.	4f/	4ryy	.	4F\	.	4An\	.	4c\	.	4An\	.	4c\	.	4F\	rex	.	4An\	rex	.	4c\	rex	.
=6	=6	=6	=6	=6	=6	=6	=6	=6	=6	=6	=6	=6	=6	=6	=6	=6	=6	=6	=6	=6	=6	=6	=6	=6	=6	=6	=6
4.BB-/	.	2.r	.	2.r	.	2f/	2B-\	.	2BB-/	.	2B-\	.	2d\	.	4.B-\	.	4.d\	.	4.BB-/	glo-	.	4.B-\	glo-	.	4.d\	glo-	.
8BB-/	.	.	.	.	.	.	.	.	.	.	.	.	.	.	8c\	.	8e-\	.	8BB-/	-ri-	.	8c\	-ri-	.	8e-\	-ri-	.
4BB-/	.	.	.	.	.	4r	4ryy	.	4r	.	4r	.	4r	.	4d\	.	4f\	.	4BB-/	-ae	.	4d\	-ae,	.	4f\	-ae,	.
*	*	*	*	*	*	*v	*v	*	*	*	*	*	*	*	*	*	*	*	*	*	*	*	*	*	*	*	*
=7	=7	=7	=7	=7	=7	=7	=7	=7	=7	=7	=7	=7	=7	=7	=7	=7	=7	=7	=7	=7	=7	=7	=7	=7	=7	=7
2.r	.	2.r	.	2.r	.	2.r	.	2.r	.	2.r	.	2.r	.	4.B-\	p	2.r	.	2.r	.	.	4.B-\	li-	p	2.r	.	.
.	.	.	.	.	.	.	.	.	.	.	.	.	.	8c\	.	.	.	.	.	.	8c\	-be-	.	.	.	.
.	.	.	.	.	.	.	.	.	.	.	.	.	.	4B-\	.	.	.	.	.	.	4B-\	-ra	.	.	.	.
=8	=8	=8	=8	=8	=8	=8	=8	=8	=8	=8	=8	=8	=8	=8	=8	=8	=8	=8	=8	=8	=8	=8	=8	=8	=8	=8
!	!	!	!	!	!	!	!	!	!	!	!	!	!	!	!	!	!LO:DY:b	!	!	!	!	!	!	!	!	!
4.BB-/	p	2.r	.	2.r	.	2.r	.	2.r	.	2.r	.	2.r	.	2.B-\	.	4.d\	p	4.BB-/	li-	.	2.B-\	a-	.	4.d\	li-	p
8C/	.	.	.	.	.	.	.	.	.	.	.	.	.	.	.	8e-\	.	8C/	-be-	.	.	.	.	8e-\	-be-	.
4D/	.	.	.	.	.	.	.	.	.	.	.	.	.	.	.	4f\	.	4D\	-ra	.	.	.	.	4f\	-ra	.
=9	=9	=9	=9	=9	=9	=9	=9	=9	=9	=9	=9	=9	=9	=9	=9	=9	=9	=9	=9	=9	=9	=9	=9	=9	=9	=9
(>4E-\	.	2.r	.	2.r	.	2.r	.	2.r	.	2.r	.	2.r	.	[2.B-\	.	(>4g\	.	4E-\	a-	.	2.B-\	.	.	(>4g\	a-	.
8DL\	.	.	.	.	.	.	.	.	.	.	.	.	.	.	.	8f\L	.	8DL\	-ni-	.	.	.	.	8f\L	-ni-	.
8C#X/J)	.	.	.	.	.	.	.	.	.	.	.	.	.	.	.	8en\J)	.	8C#X/J	.	.	.	.	.	8en\J)	.	.
4D\	.	.	.	.	.	.	.	.	.	.	.	.	.	.	.	4f\	.	4D\	-mas	.	.	.	.	4f\	-mas	.
=10	=10	=10	=10	=10	=10	=10	=10	=10	=10	=10	=10	=10	=10	=10	=10	=10	=10	=10	=10	=10	=10	=10	=10	=10	=10	=10
2Cn/	.	2.r	.	2.r	.	2.r	.	2.r	.	2.r	.	2.r	.	4B-\]	.	2e-X\	.	2Cn/	o-	.	4B-\	.	.	2e-X\	o-	.
.	.	.	.	.	.	.	.	.	.	.	.	.	.	8A-X\L	.	.	.	.	.	.	8A-XL\	-ni-	.	.	.	.
.	.	.	.	.	.	.	.	.	.	.	.	.	.	8G\J	.	.	.	.	.	.	8G/J	.	.	.	.	.
4C/	.	.	.	.	.	.	.	.	.	.	.	.	.	[4A-\	.	4e-\	.	4C/	-mni-	.	[>4A-/	-mas	.	4e-\	-mni-	.
=11	=11	=11	=11	=11	=11	=11	=11	=11	=11	=11	=11	=11	=11	=11	=11	=11	=11	=11	=11	=11	=11	=11	=11	=11	=11	=11
2BBn/	.	2.r	.	2.r	.	2.r	.	2.r	.	2.r	.	2.r	.	4A-\]	.	2d\	.	2BBn/	-um	.	4A-\]	o-	.	2d\	-um	.
.	.	.	.	.	.	.	.	.	.	.	.	.	.	(>8G\L	.	.	.	.	.	.	8G/L	-mni-	.	.	.	.
.	.	.	.	.	.	.	.	.	.	.	.	.	.	8F\	.	.	.	.	.	.	8F/J	.	.	.	.	.
4BB/	.	.	.	.	.	.	.	.	.	.	.	.	.	8G\	.	[4d\	.	4BB/	fi-	.	8G/	-um	.	[4d\	fi-	.
.	.	.	.	.	.	.	.	.	.	.	.	.	.	8F\J	.	.	.	.	.	.	8F/	fi-	.	.	.	.
=12	=12	=12	=12	=12	=12	=12	=12	=12	=12	=12	=12	=12	=12	=12	=12	=12	=12	=12	=12	=12	=12	=12	=12	=12	=12	=12
4C/	.	2.r	.	2.r	.	2.r	.	2.r	.	2.r	.	2.r	.	4E-\)	.	4d\]	.	4C/	-de-	.	4E-/	-de-	.	4d\]	-de-	.
4C/	.	.	.	.	.	.	.	.	.	.	.	.	.	4E-\	.	8c\L	.	4C/	-li-	.	4E-/	-li-	.	8c\L	-li-	.
.	.	.	.	.	.	.	.	.	.	.	.	.	.	.	.	(>8Bn\	.	.	.	.	.	.	.	8Bn\J	.	.
4C/	.	.	.	.	.	.	.	.	.	.	.	.	.	4E-\	.	8c\	.	4C/	-um	.	4E-/	-um	.	8c\L	-um	.
.	.	.	.	.	.	.	.	.	.	.	.	.	.	.	.	8d\J	.	.	.	.	.	.	.	8d\J	.	.
=13	=13	=13	=13	=13	=13	=13	=13	=13	=13	=13	=13	=13	=13	=13	=13	=13	=13	=13	=13	=13	=13	=13	=13	=13	=13	=13
!LO:LB:g=original	!	!LO:LB:g=original	!	!LO:LB:g=original	!	!LO:LB:g=original	!	!LO:LB:g=original	!	!LO:LB:g=original	!	!LO:LB:g=original	!	!LO:LB:g=original	!	!LO:LB:g=original	!	!LO:LB:g=original	!	!	!LO:LB:g=original	!	!	!LO:LB:g=original	!	!
(<8C/L	.	2.r	.	2.r	.	2.r	.	2.r	.	2.r	.	2.r	.	(>8E-\L	.	2e-\)	.	8C/L	de-	.	(>8E-/L	de-	.	2e-\	de-	.
8BBn/J)	.	.	.	.	.	.	.	.	.	.	.	.	.	8D\J)	.	.	.	(<8BBn/J	.	.	8D/J	.	.	.	.	.
4C/	.	.	.	.	.	.	.	.	.	.	.	.	.	4E-\	.	.	.	4C/)	-func-	.	4E-/)	-func-	.	.	.	.
4AA-/	.	.	.	.	.	.	.	.	.	.	.	.	.	4F\	.	4c\	.	4AA-/	.	.	4F/	.	.	4c\	-func-	.
=14	=14	=14	=14	=14	=14	=14	=14	=14	=14	=14	=14	=14	=14	=14	=14	=14	=14	=14	=14	=14	=14	=14	=14	=14	=14	=14
.	.	.	.	.	.	.	.	.	.	.	.	.	.	.	.	8qqc/	.	.	.	.	.	.	.	8qc/	.	.
4GG/	.	8.r	.	8r	.	8.r	.	4r	.	4r	.	4r	.	4G\	.	4Bn\	.	4GG/	-to-	.	4G/	-to-	.	[4Bn\	-to-	.
.	.	.	ff	16r	ff	.	ff	.	.	.	.	.	.	.	.	.	.	.	.	.	.	.	.	.	.	.
.	.	16GG/	.	16G/ 16g/	.	16G/ 16g/	.	.	.	.	.	.	.	.	.	.	.	.	.	.	.	.	.	.	.	.
8GG/	.	4GG/	.	4G/ 4g/	.	4G/ 4g/	.	4r	.	4r	.	4r	.	8G\	.	8B\	.	8GG/	-rum	.	8G/	-rum	.	8B\]	-rum	.
8r	.	.	.	.	.	.	.	.	.	.	.	.	.	8r	.	8r	.	8r	.	.	8r	.	.	8r	.	.
8r	.	4r	.	4r	.	8r	.	8r	.	8r	.	8r	.	8r	.	8r	.	8r	.	.	8r	.	.	8r	.	.
!	!	!	!	!	!	!	!	!	!	!	!	!	!LO:DY:b	!	!	!	!	!	!	!	!	!	!	!	!	!
8G\	f	.	.	.	.	8g/	.	8G\	.	8Bn\	f	8d\	f	8Bn\	.	8d\	f	8G\	de	.	8Bn\	de	.	8d\	de	f
=15	=15	=15	=15	=15	=15	=15	=15	=15	=15	=15	=15	=15	=15	=15	=15	=15	=15	=15	=15	=15	=15	=15	=15	=15	=15	=15
!	!	!	!	!	!	!	!	!	!	!LO:SIC:v::s=4B	!	!	!	!	!	!	!	!	!	!	!	!	!	!	!	!
4A-\	.	4r	.	4r	.	4a-/	.	4A-\	.	4B-\	.	4d\	.	4Bn\	.	4d\	.	4A-\	poe-	.	4Bn\	poe-	.	4d\	poe-	.
!	!	!	!	!	!	!	!	!	!	!LO:SIC:v::s=4B	!	!	!	!	!	!	!	!	!	!	!	!	!	!	!	!
4G\	.	8.r	.	8r	.	4g/	.	4G\	.	4B-\	.	4d\	.	4B\	.	4d\	.	4G\	-nis	.	4B\	-nis	.	4d\	-nis	.
.	.	.	.	8G/ 8g/	.	.	.	.	.	.	.	.	.	.	.	.	.	.	.	.	.	.	.	.	.	.
.	.	16GG/	.	.	.	.	.	.	.	.	.	.	.	.	.	.	.	.	.	.	.	.	.	.	.	.
4F#X\	.	8.C/L	.	8c/L 8cc/	.	4f#X/	.	4F#X\	.	4c\	.	4e-\	.	4c\	.	4e-\	.	4F#X\	in-	.	4c\	in-	.	(>4e-\	in-	.
.	.	.	.	8c/J 8cc/	.	.	.	.	.	.	.	.	.	.	.	.	.	.	.	.	.	.	.	.	.	.
.	.	16C/Jk	.	.	.	.	.	.	.	.	.	.	.	.	.	.	.	.	.	.	.	.	.	.	.	.
=16	=16	=16	=16	=16	=16	=16	=16	=16	=16	=16	=16	=16	=16	=16	=16	=16	=16	=16	=16	=16	=16	=16	=16	=16	=16	=16
4.G\	.	16GG/LL	.	4.G/ 4.g/	.	4.g/	.	4.G\	.	8c\L	.	8e-\L	.	8c\L	.	(>8e-\L	.	4G\	-fer-	.	8c\L	-fer-	.	8e-\L	-fer-	.
.	.	16GG/	.	.	.	.	.	.	.	.	.	.	.	.	.	.	.	.	.	.	.	.	.	.	.	.
!	!	!	!	!	!	!	!	!	!	!LO:SIC:v:s=8B	!	!	!	!	!	!	!	!	!	!	!	!	!	!	!	!
.	.	16GG/	.	.	.	.	.	.	.	8B-\J	.	8d\J	.	8Bn\J	.	8d\J)	.	.	.	.	8Bn\J	.	.	8d\J)	.	.
.	.	16GG/JJ	.	.	.	.	.	.	.	.	.	.	.	.	.	.	.	.	.	.	.	.	.	.	.	.
!	!	!	!	!	!	!	!	!	!	!LO:SIC:v:s=8B	!	!	!	!	!	!	!	!	!	!	!	!	!	!	!	!
.	.	8GG/	.	.	.	.	.	.	.	8B-\	.	8d\	.	8B\	.	8d\	.	8G\	-ni	.	8B\	-ni	.	8d\	-ni	.
8G\L	.	8r	.	8r	.	8g/L	.	8G\L	.	8G/L	.	8G/L	.	8G\L	.	8G/L	.	8G\	et	.	8G/	et	.	8G/	et	.
8G\	.	4r	.	4r	.	8g/	.	8G\	.	8G/	.	8G/	.	8G\	.	8G/	.	8G\	de	.	8G/	de	.	8G/	de	.
8G\J	.	.	.	.	.	8g/J	.	8G\J	.	8G/J	.	8G/J	.	8G\J	.	8G/J	.	8G\	pro-	.	8G/	pro-	.	8G/	pro-	.
=17	=17	=17	=17	=17	=17	=17	=17	=17	=17	=17	=17	=17	=17	=17	=17	=17	=17	=17	=17	=17	=17	=17	=17	=17	=17	=17
2A-\	.	2.r	.	2.r	.	2a-/	.	2A-\	.	2A-\	.	2A-\	.	2A-\	.	2A-\	.	2A-\	-fun-	.	2A-\	-fun-	.	2A-\	-fun-	.
4F\	.	.	.	.	.	4fn/	.	4Fn\	.	4F/	.	4F/	.	4F\	.	4F/	.	4F\	-do	.	4F/	-do	.	4F/	-do	.
=18	=18	=18	=18	=18	=18	=18	=18	=18	=18	=18	=18	=18	=18	=18	=18	=18	=18	=18	=18	=18	=18	=18	=18	=18	=18	=18
8.D\L	.	2.r	.	2.r	.	8.d/L	.	8.D\L	.	8.D/L	.	8.D/L	.	8.D\L	.	8.D/L	.	8.D\L	la-	.	8.D/L	la-	.	8.D/L	la-	.
16E-\Jk	.	.	.	.	.	16e-/Jk	.	16E-\Jk	.	16E-/Jk	.	16E-/Jk	.	16E-\Jk	.	16E-/Jk	.	16E-\Jk	.	.	16E-/Jk	.	.	16E-/Jk	.	.
8D\	.	.	.	.	.	8d/	.	4D\	.	4D/	.	4D/	.	4D\	.	4D/	.	8D\	-cu	.	4D/	-cu:	.	4D/	-cu:	.
8F\L	p	.	.	.	.	8f/L	p	.	.	.	.	.	.	.	.	.	.	8F\	et	p	.	.	.	.	.	.
8F\	.	.	.	.	.	8f/	.	4r	.	4r	.	4r	.	4r	.	4r	.	8F\	de	.	4r	.	.	4r	.	.
8F\J	.	.	.	.	.	8f/J	.	.	.	.	.	.	.	.	.	.	.	8F\	pro-	.	.	.	.	.	.	.
=19	=19	=19	=19	=19	=19	=19	=19	=19	=19	=19	=19	=19	=19	=19	=19	=19	=19	=19	=19	=19	=19	=19	=19	=19	=19	=19
2G-X\	.	2.r	.	2.r	.	2g-X/	.	2.r	.	2.r	.	2.r	.	2.r	.	2.r	.	2G-X\	-fun-	.	2.r	.	.	2.r	.	.
4E-\	.	.	.	.	.	4e-/	.	.	.	.	.	.	.	.	.	.	.	4E-\	-do	.	.	.	.	.	.	.
=20	=20	=20	=20	=20	=20	=20	=20	=20	=20	=20	=20	=20	=20	=20	=20	=20	=20	=20	=20	=20	=20	=20	=20	=20	=20	=20
2.C-X/^>	.	2.r	.	2.r	.	2.c-X/	.	2.C-X/^>	.	2.r	.	2.r	.	4r	.	4r	.	2.C-X/	la-	.	4r	.	.	4r	.	.
.	.	.	.	.	.	.	.	.	.	.	.	.	.	2An\	.	[2e-\^	.	.	.	.	(>2An\	li-	.	(>2e-\	li-	<
.	.	.	.	.	.	.	.	.	.	.	.	.	.	.	.	.	.	.	.	.	.	.	.	.	.	[
=21	=21	=21	=21	=21	=21	=21	=21	=21	=21	=21	=21	=21	=21	=21	=21	=21	=21	=21	=21	=21	=21	=21	=21	=21	=21	=21
2BB-/	.	2.r	.	2.r	.	2B-/	.	2BB-/	.	2.r	.	2.r	.	2B-\	.	4.e-\]	[	2BB-/	-cu:	.	4.B-\	.	.	4.e-\	.	.
.	.	.	.	.	.	.	.	.	.	.	.	.	.	.	.	.	p	.	.	.	.	.	.	.	.	.
.	.	.	.	.	.	.	.	.	.	.	.	.	.	.	.	8d\	.	.	.	.	8B-\)	-be-	.	8d\)	-be-	.
4r	.	.	.	.	.	4r	.	4r	.	.	.	.	.	8B-\L	.	[4d\	.	4r	.	.	8B-\L	-ra	.	4d\	-ra	.
.	.	.	.	.	.	.	.	.	.	.	.	.	.	8An\J	.	.	.	.	.	.	8An\J	.	.	.	.	.
=22	=22	=22	=22	=22	=22	=22	=22	=22	=22	=22	=22	=22	=22	=22	=22	=22	=22	=22	=22	=22	=22	=22	=22	=22	=22	=22
*	*	*	*	*	*	*^	*	*	*	*	*	*	*	*	*	*	*	*	*	*	*	*	*	*	*	*
4.E-\	p	2.r	.	2.r	.	2.gn/	2.e-\	p	2.r	.	2.r	.	2.r	.	4G\	.	8d\L]	.	4.E-\	li-	.	4G/	e-	.	8d\L	e-	.
.	.	.	.	.	.	.	.	.	.	.	.	.	.	.	.	.	8c\J	.	.	.	.	.	.	.	8c\J	.	.
.	.	.	.	.	.	.	.	.	.	.	.	.	.	.	4G\	.	4.e-\	.	.	.	.	4G/	-as	.	4.e-\	-as	.
8E-\L	.	.	.	.	.	.	.	.	.	.	.	.	.	.	.	.	.	.	8E-\	-be-	.	.	.	.	.	.	.
8E-\	.	.	.	.	.	.	.	.	.	.	.	.	.	.	4G\	.	.	.	8E-\	-ra	.	4G/	de	.	.	.	.
8E-\J	.	.	.	.	.	.	.	.	.	.	.	.	.	.	.	.	8c\	.	8E-\	de	.	.	.	.	8c\	de	.
=23	=23	=23	=23	=23	=23	=23	=23	=23	=23	=23	=23	=23	=23	=23	=23	=23	=23	=23	=23	=23	=23	=23	=23	=23	=23	=23	=23
!	!LO:DY:b	!	!	!	!	!	!	!	!	!	!	!LO:DY:b	!	!	!	!	!	!	!	!	!	!	!	!	!	!	!
(<2.D-X\^	f	2.r	.	2.b-X\	.	2.f/	2.B-\	ff	2.D-X\	.	2.F/	f	2.B-\	f	2.F\	.	2.B-\	f	2.D-X\	o-	.	2.F/	o-	.	2.B-\	o-	>
.	.	.	.	.	.	.	.	.	.	.	.	.	.	.	.	.	.	.	.	.	.	.	.	.	.	.	]
=24	=24	=24	=24	=24	=24	=24	=24	=24	=24	=24	=24	=24	=24	=24	=24	=24	=24	=24	=24	=24	=24	=24	=24	=24	=24	=24	=24
2BB-/)	.	2.r	.	2b-X\	.	2f/	2B-\	.	2BB-/	.	2F/	.	2d-X\	.	2F\	.	2d-X\	.	2BB-/	-re	.	2F/	-re	.	2d-X\	-re	.
4D-X\	.	.	.	4r	.	4r	4ryy	.	4r	.	4r	.	4r	.	4B-\	.	(>4d-\	.	4D-X\	le-	.	4B-\	le-	.	4d-\	le-	.
*	*	*	*	*	*	*v	*v	*	*	*	*	*	*	*	*	*	*	*	*	*	*	*	*	*	*	*	*
=25	=25	=25	=25	=25	=25	=25	=25	=25	=25	=25	=25	=25	=25	=25	=25	=25	=25	=25	=25	=25	=25	=25	=25	=25	=25	=25
!LO:LB:g=original	!	!LO:LB:g=original	!	!LO:LB:g=original	!	!LO:LB:g=original	!	!LO:LB:g=original	!	!LO:LB:g=original	!	!LO:LB:g=original	!	!LO:LB:g=original	!	!LO:LB:g=original	!	!LO:LB:g=original	!	!	!LO:LB:g=original	!	!	!LO:LB:g=original	!	!
4F\	.	2.r	.	2.r	.	2.r	.	2.r	.	2.r	.	2.r	.	8B-\L	.	8.d-X\L	.	4F\	-o-	.	(>8B-\L	-o-	.	(>8d-X\L	-o-	.
.	.	.	.	.	.	.	.	.	.	.	.	.	.	8An\J	.	.	.	.	.	.	8An\J)	.	.	8c\J)	.	.
.	.	.	.	.	.	.	.	.	.	.	.	.	.	.	.	16c\Jk)	.	.	.	.	.	.	.	.	.	.
8F\	.	.	.	.	.	.	.	.	.	.	.	.	.	8A\	.	8c\	.	8F\	-nis,	.	8A\	-nis,	.	8c\	-nis,	.
8r	.	.	.	.	.	.	.	.	.	.	.	.	.	8r	.	8r	.	8r	.	.	8r	.	.	8r	.	.
8.G-X\L	.	.	.	.	.	.	.	.	.	.	.	.	.	8.A\L	.	8.c\L	.	8.G-X\	ne	.	8.A\	ne	.	8.c\	ne	.
16F\Jk	.	.	.	.	.	.	.	.	.	.	.	.	.	16A\Jk	.	16c\Jk	.	16F\	ab-	.	16A\	ab-	.	16c\	ab-	.
=26	=26	=26	=26	=26	=26	=26	=26	=26	=26	=26	=26	=26	=26	=26	=26	=26	=26	=26	=26	=26	=26	=26	=26	=26	=26	=26
8.En\^L	.	2.r	.	2.r	.	2.r	.	2.r	.	2.r	.	2.r	.	8.B-\L	.	8.d-X\^L	.	8.En\	-sor-	.	8.B-\	-sor-	.	8.d-X\^	-sor-	.
16F\Jk	.	.	.	.	.	.	.	.	.	.	.	.	.	16An\Jk	.	16c\Jk	.	16F\	-be-	.	16An\	-be-	.	16c\	-be-	.
8F\	.	.	.	.	.	.	.	.	.	.	.	.	.	8A\	.	8c\	.	8F\	-at	.	8A\	-at	.	8c\	-at	.
8r	.	.	.	.	.	.	.	.	.	.	.	.	.	8r	.	8r	.	8r	.	.	8r	.	.	8r	.	.
8.G-X\L	.	.	.	.	.	.	.	.	.	.	.	.	.	8.A\L	.	8.c\L	.	8.G-X\	e-	.	8.A\	e-	.	8.c\	e-	.
16F\Jk	.	.	.	.	.	.	.	.	.	.	.	.	.	16A\Jk	.	16c\Jk	.	16F\	-as	.	16A\	-as	.	16c\	-as	.
=27	=27	=27	=27	=27	=27	=27	=27	=27	=27	=27	=27	=27	=27	=27	=27	=27	=27	=27	=27	=27	=27	=27	=27	=27	=27	=27
8.En\^L	.	2.r	.	2.r	.	2.r	.	2.r	.	2.r	.	2.r	.	8.B-\L	.	8.d-X\^L	.	8.En\	tár-	.	8.B-\	tár-	.	8.d-X\	tár-	.
16F\Jk	.	.	.	.	.	.	.	.	.	.	.	.	.	16An\Jk	.	16c\Jk	.	16E\	-ta-	.	16An\	-ta-	.	16c\	-ta-	.
8F\	.	.	.	.	.	.	.	.	.	.	.	.	.	8A\	.	8c\	.	8F\	-rus	.	8A\	-rus,	.	8c\	-rus,	.
(>8F\L	.	.	.	.	.	.	.	.	.	.	.	.	.	8A\L	.	8f\L	.	8F\	ne	.	8A\	ne	.	8f\	ne	.
8G\	.	.	.	.	.	.	.	.	.	.	.	.	.	8B-\	.	8en\	.	8G\	ca-	.	8B-\	ca-	.	8en\	ca-	<
8An\J	.	.	.	.	.	.	.	.	.	.	.	.	.	8c\J	.	8e-X\J	<	8An\	-dant	.	8c\	-dant	.	8e-X\	-dant	.
=28	=28	=28	=28	=28	=28	=28	=28	=28	=28	=28	=28	=28	=28	=28	=28	=28	=28	=28	=28	=28	=28	=28	=28	=28	=28	=28
2B-\)	<	2.r	.	2.r	.	4r	.	4r	.	4r	.	4r	.	2d-X\	.	2d-X\	.	2B-\	in	.	2d-X\	in	.	2d-X\	in	.
.	.	.	.	.	.	4r	.	4r	.	4r	.	4r	.	.	.	.	[	.	.	.	.	.	.	.	.	.
*	*	*	*	*	*	*^	*	*^	*	*	*	*	*	*	*	*	*	*	*	*	*	*	*	*	*	*
4B-\	[[	.	.	.	.	4B-/	4B-\	.	4BB-/	4BB-\	.	4B-\	.	4B-\	.	(>4B-\	.	(>4B-\	.	4B-\	ob-	.	4B-\	ob-	.	(>4B-\	ob-	[
=29	=29	=29	=29	=29	=29	=29	=29	=29	=29	=29	=29	=29	=29	=29	=29	=29	=29	=29	=29	=29	=29	=29	=29	=29	=29	=29	=29	=29
2An\	.	2.r	.	2.r	.	2An/	2An\	.	2AAn/	2AAn\	.	2An\	.	2An\	.	2An\	.	2An\	.	(>2An\	-scu-	.	(>2An\	-scu-	.	2An\	-scu-	.
4B-\	.	.	.	.	.	4B-/	4B-\	.	4BB-/	4BB-\	.	4B-\	.	4B-\	.	4B-\)	.	4B-\	.	4B-\)	.	.	4B-\)	.	.	4B-\)	.	.
=30	=30	=30	=30	=30	=30	=30	=30	=30	=30	=30	=30	=30	=30	=30	=30	=30	=30	=30	=30	=30	=30	=30	=30	=30	=30	=30	=30	=30
2G-X\	.	2.r	.	2.r	.	2G-X/	2G-\	.	2GG-X/	2GG-\	.	2G-X/	.	2G-X/	.	2G-X\	.	2G-X\)	.	2G-X\	-rum,	.	2G-X/	-rum,	.	2G-X/	-rum,	.
!	!LO:DY:b	!	!	!	!	!	!	!	!	!	!	!	!	!	!	!	!	!	!	!	!	!	!	!	!	!	!	!
.	p	.	.	.	.	.	.	.	.	.	.	.	.	.	.	.	.	.	.	.	.	.	.	.	.	.	.	.
(>8.G-\L	.	.	.	.	.	4r	4ryy	.	4r	4ryy	.	4r	.	4r	.	4r	.	4r	.	8.G-\L	sed	.	4r	.	.	4r	.	.
16F\Jk)	.	.	.	.	.	.	.	.	.	.	.	.	.	.	.	.	.	.	.	16F\Jk	.	.	.	.	.	.	.	.
*	*	*	*	*	*	*v	*v	*	*	*	*	*	*	*	*	*	*	*	*	*	*	*	*	*	*	*	*	*
*	*	*	*	*	*	*	*	*v	*v	*	*	*	*	*	*	*	*	*	*	*	*	*	*	*	*	*	*
=31	=31	=31	=31	=31	=31	=31	=31	=31	=31	=31	=31	=31	=31	=31	=31	=31	=31	=31	=31	=31	=31	=31	=31	=31	=31	=31
4F\	.	2.r	.	2.r	.	2.r	.	2.r	.	2.r	.	2.r	.	4r	.	4r	.	4F\	si-	.	4r	.	.	4r	.	.
4F\	.	.	.	.	.	.	.	.	.	.	.	.	.	4r	.	4r	.	4F\	-gni-	.	4r	.	.	4r	.	.
!	!	!	!	!	!	!	!	!	!	!	!	!	!	!	!	!	!	!	!	!	!	!	!	!LO:TX:a:i:t=dolce	!	!
4F\	.	.	.	.	.	.	.	.	.	.	.	.	.	8.B-\L	.	8.d-X\L	.	4F\	-fer	.	8.B-\L	sed	.	8.d-X\L	sed	.
.	.	.	.	.	.	.	.	.	.	.	.	.	.	16An\Jk	.	16c\Jk	.	.	.	.	16An\J	.	.	16c\Jk	.	.
=32	=32	=32	=32	=32	=32	=32	=32	=32	=32	=32	=32	=32	=32	=32	=32	=32	=32	=32	=32	=32	=32	=32	=32	=32	=32	=32
2F\	.	2.r	.	2.r	.	2.r	.	2.r	.	2.r	.	2.r	.	4An\	.	4c\	.	2F\	san-	.	4An\	si-	.	4c\	si-	.
.	.	.	.	.	.	.	.	.	.	.	.	.	.	4A\	.	4c\	.	.	.	.	4A\	-gni-	.	4c\	-gni-	.
8.F\L	.	.	.	.	.	.	.	.	.	.	.	.	.	4A\	.	4c\	.	8.F\L	-ctus	.	4A\	-fer	.	4c\	-fer	.
16E-\Jk	.	.	.	.	.	.	.	.	.	.	.	.	.	.	.	.	.	16E-\Jk	.	.	.	.	.	.	.	.
=33	=33	=33	=33	=33	=33	=33	=33	=33	=33	=33	=33	=33	=33	=33	=33	=33	=33	=33	=33	=33	=33	=33	=33	=33	=33	=33
2.D\	.	2.r	.	2.r	.	2.r	.	2.r	.	2.r	.	2.r	.	2B-\	.	2f\	.	2.D\	Mi-	.	2B-\	san-	.	2f\	san-	.
.	.	.	.	.	.	.	.	.	.	.	.	.	.	8.B-\L	.	4f\	.	.	.	.	8B-\L	-ctus	.	[4f\	-ctus	.
.	.	.	.	.	.	.	.	.	.	.	.	.	.	.	.	.	.	.	.	.	8An\J	.	.	.	.	.
.	.	.	.	.	.	.	.	.	.	.	.	.	.	16An\Jk	.	.	.	.	.	.	.	.	.	.	.	.
=34	=34	=34	=34	=34	=34	=34	=34	=34	=34	=34	=34	=34	=34	=34	=34	=34	=34	=34	=34	=34	=34	=34	=34	=34	=34	=34
2.E-\	.	2.r	.	2.r	.	2.r	.	2.r	.	2.r	.	2.r	.	2G\	.	4f\	.	2.E-\	-cha-	.	2G/	Mi-	.	4f\]	.	.
.	.	.	.	.	.	.	.	.	.	.	.	.	.	.	.	8e-\L	.	.	.	.	.	.	.	8e-\L	Mi-	.
.	.	.	.	.	.	.	.	.	.	.	.	.	.	.	.	8d\J	.	.	.	.	.	.	.	8d\J	.	.
.	.	.	.	.	.	.	.	.	.	.	.	.	.	4G\	.	4e-\	.	.	.	.	4G/	-cha-	.	4e-\	-cha-	.
=35	=35	=35	=35	=35	=35	=35	=35	=35	=35	=35	=35	=35	=35	=35	=35	=35	=35	=35	=35	=35	=35	=35	=35	=35	=35	=35
2F\	.	2.r	.	2.r	.	2.r	.	2.r	.	2.r	.	2.r	.	2An\	.	2c\	.	2F\	-el	.	2An\	-el	.	2c\	-el	.
8F\L	.	.	.	.	.	.	.	.	.	.	.	.	.	8A\L	.	8c\L	.	8F\	re-	.	8A\	re-	.	8c\L	re-	.
8F\J	.	.	.	.	.	.	.	.	.	.	.	.	.	8A\J	.	8c\J	.	8F\	-prae-	.	8A\	-prae-	.	8c\J	-prae-	.
=36	=36	=36	=36	=36	=36	=36	=36	=36	=36	=36	=36	=36	=36	=36	=36	=36	=36	=36	=36	=36	=36	=36	=36	=36	=36	=36
4BB-/	.	2.r	.	2.r	.	2.r	.	2.r	.	2.r	.	2.r	.	2B-\	.	4d\	.	(<4BB-/	-sen-	.	2B-\	-sen-	.	(>4d\	-sen-	.
4C/	.	.	.	.	.	.	.	.	.	.	.	.	.	.	.	4e-\	.	4C/)	.	.	.	.	.	4e-\)	.	.
4D\	.	.	.	.	.	.	.	.	.	.	.	.	.	4B-\	.	[4f\	.	4D\	-tet	.	4B-\	-tet	.	[4f\	-tet	.
=37	=37	=37	=37	=37	=37	=37	=37	=37	=37	=37	=37	=37	=37	=37	=37	=37	=37	=37	=37	=37	=37	=37	=37	=37	=37	=37
!LO:LB:g=original	!	!LO:LB:g=original	!	!LO:LB:g=original	!	!LO:LB:g=original	!	!LO:LB:g=original	!	!LO:LB:g=original	!	!LO:LB:g=original	!	!LO:LB:g=original	!	!LO:LB:g=original	!	!LO:LB:g=original	!	!	!LO:LB:g=original	!	!	!LO:LB:g=original	!	!
4E-\	.	2.r	.	2.r	.	2.r	.	2.r	.	2.r	.	2.r	.	4G\	.	4.f\]	.	4E-\	e-	.	4G/	e-	.	4.f\]	e-	.
4E-\	.	.	.	.	.	.	.	.	.	.	.	.	.	4G\	.	.	.	4E-\	-as	.	4G/	-as	.	.	.	.
.	.	.	.	.	.	.	.	.	.	.	.	.	.	.	.	8e-\L	.	.	.	.	.	.	.	8e-\	.	.
4E-\	.	.	.	.	.	.	.	.	.	.	.	.	.	4G\	.	8d\	.	4E-\	in	.	4G/	in	.	8d\	-as	.
.	.	.	.	.	.	.	.	.	.	.	.	.	.	.	.	8c\J	.	.	.	.	.	.	.	8c\	in	.
=38	=38	=38	=38	=38	=38	=38	=38	=38	=38	=38	=38	=38	=38	=38	=38	=38	=38	=38	=38	=38	=38	=38	=38	=38	=38	=38
2D\	.	2.r	.	2.r	.	2.r	.	2.r	.	2.r	.	2.r	.	2F\	.	2B-\	.	2D\	lu-	.	2F/	lu-	.	2B-\	lu-	.
4F\	.	.	.	.	.	.	.	.	.	.	.	.	.	4An\	.	4c\	.	4F\	-cem	.	4An\	-cem	.	4c\	-cem	.
=39	=39	=39	=39	=39	=39	=39	=39	=39	=39	=39	=39	=39	=39	=39	=39	=39	=39	=39	=39	=39	=39	=39	=39	=39	=39	=39
4BB-/	.	2.r	.	2.r	.	2.r	.	2.r	.	2.r	.	2.r	.	8An\L	.	8c#X\L	.	4BB-/	san-	.	8An\L	san-	.	8c#X\L	san-	.
.	.	.	.	.	.	.	.	.	.	.	.	.	.	8B-\J	.	8d\J	.	.	.	.	8B-\J	.	.	8d\J	.	.
!	!	!	!	!	!	!	!	!	!	!	!	!	!	!	!	!	!	!	!	!	!LO:SIC:v= ćwierćnuta	!	!	!	!	!
!	!	!	!	!	!	!	!	!	!	!	!	!	!	!	!	!	!	!	!	!	!LO:N:vis=4	!	!	!	!	!
8BB-/	.	.	.	.	.	.	.	.	.	.	.	.	.	8B-\	.	8d\	.	8BB-/	-ctam	.	8B-\	-ctam	.	8d\	-ctam	.
8r	.	.	.	.	.	.	.	.	.	.	.	.	.	8r	.	8r	.	8r	.	.	8r	.	.	8r	.	.
8F\L	.	.	.	.	.	.	.	.	.	.	.	.	.	8A\L	.	8cn\L	.	8F\	re-	.	8An\	re-	.	8cn\	re-	.
8F\J	.	.	.	.	.	.	.	.	.	.	.	.	.	8A\J	.	(>8c\J	.	8F\	-prae-	.	8A\	-prae-	.	(>8c\	-prae-	.
=40	=40	=40	=40	=40	=40	=40	=40	=40	=40	=40	=40	=40	=40	=40	=40	=40	=40	=40	=40	=40	=40	=40	=40	=40	=40	=40
(<4BB-/	.	2.r	.	2.r	.	2.B-/	.	2.r	.	2.r	.	2.r	.	2B-\	.	4d\	.	(<4BB-/	-sen-	.	2B-\	-sen-	.	4d\	-sen-	.
4C/	.	.	.	.	.	.	.	.	.	.	.	.	.	.	.	4e-\)	.	4C/)	.	.	.	.	.	4e-\	.	.
4D\)	.	.	.	.	.	.	.	.	.	.	.	.	.	4B-\	.	[4f\	.	4D/	-tet	.	4B-\	-tet	.	4f\)	-tet	.
=41	=41	=41	=41	=41	=41	=41	=41	=41	=41	=41	=41	=41	=41	=41	=41	=41	=41	=41	=41	=41	=41	=41	=41	=41	=41	=41
4E-\	.	2.r	.	2.r	.	2B-/	.	4r	.	4r	.	2.r	.	4G\	.	4.f\]	.	4E-\	e-	.	4G/	e-	.	4.f\	e-	.
4E-\	.	.	.	.	.	.	.	4r	.	4r	.	.	.	4G\	.	.	.	4E-\	-as	.	4G/	-as	.	.	.	.
.	.	.	.	.	.	.	.	.	.	.	.	.	.	.	.	(>8e-\L	.	.	.	.	.	.	.	8e-\	-as	.
4E-\	.	.	.	.	.	4e-/ 4g/	.	4E-\	.	4G/	.	.	.	4G\	.	8d\	.	4E-\	in	.	4G/	in	.	8d\)	.	.
.	.	.	.	.	.	.	.	.	.	.	.	.	.	.	.	8c\J)	.	.	.	.	.	.	.	8c\	in	.
=42	=42	=42	=42	=42	=42	=42	=42	=42	=42	=42	=42	=42	=42	=42	=42	=42	=42	=42	=42	=42	=42	=42	=42	=42	=42	=42
2.F\	.	2.r	.	2.r	.	2.f/	.	2.F\	.	2F/	.	2.d\	.	[2.B-\	.	2.d\	<	2.F\	lu-	.	(>2.B-\	lu-	.	2.d\	lu-	.
.	.	.	.	.	.	.	.	.	.	[4B-\	.	.	.	.	.	.	.	.	.	.	.	.	.	.	.	.
=43	=43	=43	=43	=43	=43	=43	=43	=43	=43	=43	=43	=43	=43	=43	=43	=43	=43	=43	=43	=43	=43	=43	=43	=43	=43	=43
2.F\	.	2.r	.	2.r	.	2.f/	.	2.F\	.	4B-\]	.	2.c\	.	4B-\]	.	2.c\	[	2.F\	-cem	.	4B-\	.	.	2.c\	-cem	.
.	.	.	.	.	.	.	.	.	.	(>8AnL\	.	.	<	8An\L	.	.	>	.	.	.	8AnL\)	.	.	.	.	.
.	.	.	.	.	.	.	.	.	.	8G/J	.	.	.	8G\J	.	.	.	.	.	.	8G/J	.	.	.	.	.
.	.	.	.	.	.	.	.	.	.	4A\)	.	.	[	4A\	.	.	]]	.	.	.	4A\	-cem	.	.	.	.
=44	=44	=44	=44	=44	=44	=44	=44	=44	=44	=44	=44	=44	=44	=44	=44	=44	=44	=44	=44	=44	=44	=44	=44	=44	=44	=44
[2.BB-/	<	2.r	.	2.b-X\	<	2.B-/ 2.f/	.	2.BB-/	.	2.B-\	.	2.d\	>	2.F\ 2.B-\	.	2.d\	.	2.BB-/	-san-	.	2.F\ 2.B-\	san-	.	2.B-\ 2.d\	san-	<
.	[	.	.	.	[	.	.	.	.	.	.	.	]	.	.	.	.	.	.	.	.	.	.	.	.	.
=45	=45	=45	=45	=45	=45	=45	=45	=45	=45	=45	=45	=45	=45	=45	=45	=45	=45	=45	=45	=45	=45	=45	=45	=45	=45	=45
!LO:SIC:v= półnuta z kropką	!	!	!	!	!	!	!	!	!	!	!	!	!	!	!	!	!	!	!	!	!	!	!	!	!	!
!LO:N:vis=2.	!	!	!	!	!	!	!	!	!	!	!	!	!	!	!	!	!	!	!	!	!	!	!	!	!	!
2BB-/]	>	2.r	.	2b-X\	>	2B-/ 2f/	.	2BB-/	.	2.B-\	.	2d\	.	2F\ 2B-\	.	4.d\	.	2BB-/	-ctam:	.	2F\ 2B-\	-ctam:	f	4.B-\ 4.d\	-ctam:	[
.	.	.	.	.	.	.	.	.	.	.	.	.	.	.	.	8d\L	f	.	.	.	.	.	.	8d\	Quam	>
4r	]	.	.	4r	]	4r	.	4r	.	.	.	4r	.	4r	.	8d\	.	4r	.	.	4r	.	.	8d\	.	.
.	.	.	.	.	.	.	.	.	.	.	.	.	.	.	.	8d\J	.	.	.	.	.	.	.	8d\	olim	]
=46	=46	=46	=46	=46	=46	=46	=46	=46	=46	=46	=46	=46	=46	=46	=46	=46	=46	=46	=46	=46	=46	=46	=46	=46	=46	=46
2.r	.	2.r	.	2.r	.	2.r	.	2.r	.	2.r	.	2.r	.	4r	.	8.d\L	.	2.r	.	.	4r	.	.	8.d\	A-	.
.	.	.	.	.	.	.	.	.	.	.	.	.	.	.	.	16c\Jk	.	.	.	.	.	.	.	16c\	-bra-	.
.	.	.	.	.	.	.	.	.	.	.	.	.	.	8r	.	4B-\	.	.	.	.	8r	.	.	4B-\	-hae	.
.	.	.	.	.	.	.	.	.	.	.	.	.	.	.	f	.	.	.	.	.	.	.	.	.	.	.
.	.	.	.	.	.	.	.	.	.	.	.	.	.	8B-\L	.	.	.	.	.	.	8B-\	quam	f	.	.	.
.	.	.	.	.	.	.	.	.	.	.	.	.	.	8B-\	.	4d\	.	.	.	.	8B-\	.	.	4d\	quam	.
.	.	.	.	.	.	.	.	.	.	.	.	.	.	8B-\J	.	.	.	.	.	.	8B-\	olim	.	.	.	.
=47	=47	=47	=47	=47	=47	=47	=47	=47	=47	=47	=47	=47	=47	=47	=47	=47	=47	=47	=47	=47	=47	=47	=47	=47	=47	=47
4r	.	2.r	.	2.r	.	2.r	.	2.r	.	2.r	.	2.r	.	8.B-\L	.	2d\	.	4r	.	.	8.B-\	A-	.	2d\	o-	.
.	.	.	.	.	.	.	.	.	.	.	.	.	.	16An\Jk	.	.	.	.	.	.	16An/	-bra-	.	.	.	.
8r	.	.	.	.	.	.	.	.	.	.	.	.	.	4G\	.	.	.	8r	.	f	4G/	-hae	.	.	.	.
!	!LO:DY:b	!	!	!	!	!	!	!	!	!	!	!	!	!	!	!	!	!	!	!	!	!	!	!	!	!
8G\L	f	.	.	.	.	.	.	.	.	.	.	.	.	.	.	.	.	8G\	quam	.	.	.	.	.	.	.
8G\	.	.	.	.	.	.	.	.	.	.	.	.	.	4B-\	.	4e-\	.	8G\	.	.	4B-\	quam	.	4e-\	-lim	.
8G\J	.	.	.	.	.	.	.	.	.	.	.	.	.	.	.	.	.	8G\	olim	.	.	.	.	.	.	.
=48	=48	=48	=48	=48	=48	=48	=48	=48	=48	=48	=48	=48	=48	=48	=48	=48	=48	=48	=48	=48	=48	=48	=48	=48	=48	=48
8.G\L	.	2.r	.	2.r	.	2.r	.	4r	.	4r	.	4r	.	8.B-\L	.	4.e-\	.	8.G\	A-	.	8.B-\L	o-	.	(>4.e-\	pro-	.
!	!	!	!	!	!	!	!	!	!	!	!	!	!	!	!	!	!	!	!	!	!LO:SIC:v:s=16A	!	!	!	!	!
16F\Jk	.	.	.	.	.	.	.	.	.	.	.	.	.	16An\Jk	.	.	.	16F\	-bra-	.	16A-\Jk	.	.	.	.	.
4E-\	.	.	.	.	.	.	.	4r	.	4r	.	4r	.	4G\	.	.	.	4E-\	-hae	.	4G/	-lim	.	.	.	.
.	.	.	.	.	.	.	.	.	.	.	.	.	.	.	.	8d\	.	.	.	.	.	.	.	8d\)	.	>
(>8En\L	.	.	.	.	.	.	.	8En\L	.	(>8GL\	.	4c\	.	8G\L	.	4c\	.	8En\	pro-	.	8G/	pro-	.	4c\	-mi-	.
!	!	!	!	!	!	!	!	!	!	!	!	!	!	!	!	!	!	!	!	!	!LO:SIC:v:s=8A	!	!	!	!	!
8F\J	.	.	.	.	.	.	.	8F\J	.	8An\J	.	.	.	8A\J	.	.	.	8F\	-mi-	.	8A-\	-mi-	.	.	.	.
=49	=49	=49	=49	=49	=49	=49	=49	=49	=49	=49	=49	=49	=49	=49	=49	=49	=49	=49	=49	=49	=49	=49	=49	=49	=49	=49
2G\^)	.	2.r	.	2.r	.	2.r	.	2G\	.	2B-\)	.	2B-\	.	2B-\	.	2B-\	.	(>2G\	-si-	.	2B-\	-si-	.	(>2B-\	-vi-	.
4F\	.	.	.	.	.	.	.	4F\	.	4An\	.	4c\	.	4An\	.	4c\	.	4F\)	-sti	.	4An\	-sti	.	4c\)	-sti-	]
=50	=50	=50	=50	=50	=50	=50	=50	=50	=50	=50	=50	=50	=50	=50	=50	=50	=50	=50	=50	=50	=50	=50	=50	=50	=50	=50
!LO:LB:g=original	!	!LO:LB:g=original	!	!LO:LB:g=original	!	!LO:LB:g=original	!	!LO:LB:g=original	!	!LO:LB:g=original	!	!LO:LB:g=original	!	!LO:LB:g=original	!	!LO:LB:g=original	!	!LO:LB:g=original	!	!	!LO:LB:g=original	!	!	!LO:LB:g=original	!	!
4.BB-/	.	2.r	.	2.r	.	2.r	.	4.BB-/	.	2B-\	.	2d\	.	2B-\	.	2d\	.	4.BB-/	-sti,	.	2B-\	sti,	.	2d\	-sti,	.
.	.	.	.	.	.	.	.	.	.	.	.	.	.	.	.	.	.	.	.	f	.	.	.	.	.	.
8d\L	f	.	.	.	.	.	.	8D\L	f	.	.	.	.	.	.	.	.	8d\	quam	.	.	.	.	.	.	.
8d\	.	.	.	.	.	.	.	8D\	.	4r	.	4r	.	4r	.	4r	.	8d\	o-	.	4r	.	.	4r	.	.
8d\J	.	.	.	.	.	.	.	8D\J	.	.	.	.	.	.	.	.	.	8d\	-lim	.	.	.	.	.	.	.
=51	=51	=51	=51	=51	=51	=51	=51	=51	=51	=51	=51	=51	=51	=51	=51	=51	=51	=51	=51	=51	=51	=51	=51	=51	=51	=51
!	!	!	!	!	!	!	!	!LO:N:vis=8	!	!	!	!	!	!	!	!	!	!	!	!	!	!	!	!	!	!
8.d\L	.	2.r	.	2.r	.	2.r	.	8.D\L	.	4r	.	2.r	.	4r	.	2.r	.	8.d\	A-	.	4r	.	.	2.r	.	.
16c\Jk	.	.	.	.	.	.	.	16C/Jk	.	.	.	.	.	.	.	.	.	16c\	-bra-	.	.	.	.	.	.	.
4B-\	.	.	.	.	.	.	.	4BB-/	.	8r	.	.	.	8r	.	.	.	4B-\	-hae	.	8r	.	.	.	.	.
.	.	.	.	.	.	.	.	.	.	8d\L	.	.	.	8d\L	.	.	.	.	.	.	8d\	quam	f	.	.	.
4G\	.	.	.	.	.	.	.	4G\	.	8d\	.	.	.	8d\	.	.	.	4G\	quam	.	8d\	o-	.	.	.	.
.	.	.	.	.	.	.	.	.	.	8d\J	.	.	.	8d\J	.	.	.	.	.	.	8d\	-lim	.	.	.	.
=52	=52	=52	=52	=52	=52	=52	=52	=52	=52	=52	=52	=52	=52	=52	=52	=52	=52	=52	=52	=52	=52	=52	=52	=52	=52	=52
4F#X\	.	2.r	.	2.r	.	2.r	.	4F#X\	.	8.d\L	.	4r	.	8.d\L	.	4r	.	(>4F#X\	o-	.	8.d\	A-	.	4r	.	.
.	.	.	.	.	.	.	.	.	.	16c\Jk	.	.	.	16c\Jk	.	.	.	.	.	.	16c\	-bra-	.	.	.	.
4G\	.	.	.	.	.	.	.	4G\	.	4B-\	.	8r	.	4B-\	.	8r	.	4G\	.	.	4B-\	-hae	.	8r	.	.
.	.	.	.	.	.	.	.	.	.	.	.	8d\L	.	.	.	8d\L	.	.	.	.	.	.	.	8d\	quam	f
4Fn\	.	.	.	.	.	.	.	4Fn\	.	4An\	.	8d\	.	4An\	.	8d\	.	4Fn\)	-lim	.	4An\	pro-	.	8d\	o-	.
.	.	.	.	.	.	.	.	.	.	.	.	8d\J	.	.	.	8d\J	.	.	.	.	.	.	.	8d\	-lim	.
=53	=53	=53	=53	=53	=53	=53	=53	=53	=53	=53	=53	=53	=53	=53	=53	=53	=53	=53	=53	=53	=53	=53	=53	=53	=53	=53
!	!	!	!	!	!	!	!	!	!	!LO:N:vis=2	!	!	!	!	!	!	!	!	!	!	!	!	!	!	!	!
(>4.E-\	.	2.r	.	2.r	.	2.r	.	(>4.E-\	.	[>2.G/	.	8.d\L	.	2G\	.	8.d\L	.	(>4.E-\	pro-	.	2G/	.	.	8.d\	A-	.
.	.	.	.	.	.	.	.	.	.	.	.	16c\Jk	.	.	.	16c\Jk	.	.	.	.	.	.	.	16c\	-bra-	.
.	.	.	.	.	.	.	.	.	.	.	.	4c\	.	.	.	4c\	.	.	.	.	.	.	.	4c\	-hae	.
8D\	.	.	.	.	.	.	.	8D\)	.	.	.	.	.	.	.	.	.	8D\)	.	.	.	.	.	.	.	.
4C/)	.	.	.	.	.	.	.	4C/	.	.	.	8e-\L	.	4G\	.	8e-\L	.	4C/	-mi-	.	4G/	-mi-	.	8e-\	pro-	.
.	.	.	.	.	.	.	.	.	.	.	.	8c\J	.	.	.	8c\J	.	.	.	.	.	.	.	8c\	-mi-	.
=54	=54	=54	=54	=54	=54	=54	=54	=54	=54	=54	=54	=54	=54	=54	=54	=54	=54	=54	=54	=54	=54	=54	=54	=54	=54	=54
2.D\	>	2.r	.	2.r	.	2.r	.	2.D\	.	2G/]	.	2B-\	.	2G\	.	2B-\	.	2.D\	-si-	.	2G/	-si-	.	2B-\	-si-	>
.	]]	.	.	.	.	.	.	.	.	4F#X/	.	4An\	.	4F#X\	.	4An\	.	.	.	.	4F#X/	.	.	4An\	.	]]
=55	=55	=55	=55	=55	=55	=55	=55	=55	=55	=55	=55	=55	=55	=55	=55	=55	=55	=55	=55	=55	=55	=55	=55	=55	=55	=55
*	*	*	*	*tremolo	*	*	*	*	*	*	*	*	*	*	*	*	*	*	*	*	*	*	*	*	*	*
2E-\	.	2.r	.	(<8G/L 8g/	.	2.r	.	2E-\	.	2G/	.	2G/	.	2G\	.	2G/	.	2E-\	-sti	.	2G/	-sti	.	2G/	-sti	.
.	.	.	.	8G/ 8g/	.	.	.	.	.	.	.	.	.	.	.	.	.	.	.	.	.	.	.	.	.	.
.	.	.	.	8G/ 8g/	.	.	.	.	.	.	.	.	.	.	.	.	.	.	.	.	.	.	.	.	.	.
.	.	.	.	8G/ 8g/	.	.	.	.	.	.	.	.	.	.	.	.	.	.	.	.	.	.	.	.	.	.
4D\	.	.	.	8G/ 8g/	.	.	.	4r	.	4r	.	4r	.	4Fn\	.	4Bn\	.	4D\	et	.	4Fn/	et	.	4Bn\	et	.
.	.	.	.	8G/J 8g/	.	.	.	.	.	.	.	.	.	.	.	.	.	.	.	.	.	.	.	.	.	.
=56	=56	=56	=56	=56	=56	=56	=56	=56	=56	=56	=56	=56	=56	=56	=56	=56	=56	=56	=56	=56	=56	=56	=56	=56	=56	=56
*	*	*	*	*Xtremolo	*	*	*	*	*	*	*	*	*	*	*	*	*	*	*	*	*	*	*	*	*	*
4.C/	.	2.r	.	2G/) 2g/	.	2.r	.	4r	.	2.r	.	2.r	.	4.E-\	.	4.c\	.	4.C/	ſe-	.	4.E-/	ſe-	.	4.c\	ſe-	.
.	.	.	.	.	.	.	.	4r	.	.	.	.	.	.	.	.	.	.	.	.	.	.	.	.	.	.
8C/	.	.	.	.	.	.	.	.	.	.	.	.	.	8F\	.	8d\	.	8C/	-mi-	.	8F/	-mi-	.	8d\	-mi-	.
4C/	.	.	.	4r	.	.	.	4C/	.	.	.	.	.	[4G\	.	4e-\	.	4C/	-ni	.	4G/	-ni	.	(>4e-\	-ni	.
=57	=57	=57	=57	=57	=57	=57	=57	=57	=57	=57	=57	=57	=57	=57	=57	=57	=57	=57	=57	=57	=57	=57	=57	=57	=57	=57
2.D\	.	2.r	.	2.r	.	2.r	.	2.D\	.	4r	.	4r	.	2G\]	.	2B-\	.	2.D\	e-	.	2G/	e-	.	2B-\	e-	.
.	.	.	.	.	.	.	.	.	.	4G/	.	4B-\	.	.	.	.	.	.	.	.	.	.	.	.	.	.
.	.	.	.	.	.	.	.	.	.	4F#X/	.	4An\	.	4F#X\	.	4An\	.	.	.	.	4F#X/	.	.	4An\	.	.
=58	=58	=58	=58	=58	=58	=58	=58	=58	=58	=58	=58	=58	=58	=58	=58	=58	=58	=58	=58	=58	=58	=58	=58	=58	=58	=58
2G\	sf	2.r	.	8r	.	8r	.	2G\	.	[>2.G/	.	2B-\	.	2G\	.	2B-\	.	2G\	-jus	.	2G/	-jus	.	2B-\)	-jus	.
.	.	.	.	4G/ 4g/	.	4G\ 4g\	.	.	.	.	.	.	.	.	.	.	.	.	.	.	.	.	.	.	.	.
.	.	.	.	4G/ 4g/	.	4G\ 4g\	.	.	.	.	.	.	.	.	.	.	.	.	.	.	.	.	.	.	.	.
4Fn\	sf	.	.	.	.	.	.	4F\	.	.	.	4Bn\	.	4G\	.	4Bn\	.	4Fn\	et	.	4G/	et	.	4Bn\	et	sf
.	.	.	.	8G/ 8g/	.	8G\ 8g\	.	.	.	.	.	.	.	.	.	.	.	.	.	.	.	.	.	.	.	.
=59	=59	=59	=59	=59	=59	=59	=59	=59	=59	=59	=59	=59	=59	=59	=59	=59	=59	=59	=59	=59	=59	=59	=59	=59	=59	=59
4.E-\	.	2.r	.	8.G/L 8.g/	.	8.G\L 8.g\	.	2.E-\	.	2.G/]	.	2c\	.	4.G\	.	4.c\	.	4.E-\	ſe-	.	4.G/	ſe-	.	4.c\	ſe-	.
.	.	.	.	16G/Jk 16g/	.	16G\Jk 16g\	.	.	.	.	.	.	.	.	.	.	.	.	.	.	.	.	.	.	.	.
.	.	.	.	4G/ 4g/	.	4G\ 4g\	.	.	.	.	.	.	.	.	.	.	.	.	.	.	.	.	.	.	.	.
!	!LO:HP:b	!	!	!	!	!	!	!	!	!	!	!	!	!	!	!	!	!	!	!	!	!	!	!	!	!
8E-\	<	.	.	.	.	.	.	.	.	.	.	.	.	8G\	.	8c\	<	8E-\	-mi-	.	8G/	-mi-	.	8c\	-mi-	.
4E-\	.	.	.	4r	.	4r	.	.	.	.	.	4c#X\	<	4G\	.	4c#X\	.	4E-\	-ni	.	4G/	-ni	.	4c#X\	-ni	<
=60	=60	=60	=60	=60	=60	=60	=60	=60	=60	=60	=60	=60	=60	=60	=60	=60	=60	=60	=60	=60	=60	=60	=60	=60	=60	=60
[2.D\	[	2.r	.	2.r	.	2.r	.	2.D\	.	2.F#X/	.	[2.d\	[	2.F#X\ 2.An\	.	2.d\	[	(>2.D/	e-	.	(>2.F#X/ 2.An/	e-	.	2.d\	e-	[
=61	=61	=61	=61	=61	=61	=61	=61	=61	=61	=61	=61	=61	=61	=61	=61	=61	=61	=61	=61	=61	=61	=61	=61	=61	=61	=61
!	!	!	!	!	!	!	!	!	!	!LO:SIC:v:s=2G#	!	!	!	!	!	!	!	!	!	!	!	!	!	!	!	!
2D\]	.	2.r	.	2.r	.	2.r	.	2D\	.	2F/	.	2d\]	.	2F#X\ 2An\	.	2d\	.	2D\)	-jus	.	2F#X/) 2An/	-jus	.	2d\	-jus.	.
4r	.	.	.	.	.	.	.	4r	.	4r	.	4r	.	4r	.	4r	.	4r	.	.	4r	.	.	4r	.	.
==	==	==	==	==	==	==	==	==	==	==	==	==	==	==	==	==	==	==	==	==	==	==	==	==	==	==
*-	*-	*-	*-	*-	*-	*-	*-	*-	*-	*-	*-	*-	*-	*-	*-	*-	*-	*-	*-	*-	*-	*-	*-	*-	*-	*-
!!!system-decoration: [(s1,s2,s3,s4,s5)][(s6,s7,s8)][(s9,s10,s11,s12)]
!!!RDF**kern: > = above
!!!RDF**kern: < = below
!!!AIN: 1 bass 2 cello 1 cor 5 empty 2 fagot 1 tenor 1 timpa 1 tromt
!!!ENC: Andrzej Borzym
!!!END:
!!!ENC: Leszek Kubiak
!!!END: 2020-03-11
